X: 14
T: Susanne Hegel's Strathspey
C: Nancy Dickson
P: Tune for "Susanne's Strathspey"
B: Roy Goldring "14 Social Dances for 2000"
R: strathspey
Z: 2015 John Chambers <jc:trillian.mit.edu>
M: C
L: 1/8
K: F
c2 |\
"F"f<c "C7/e"c>B "Dm"A>G "F/c"A<F | "Bb"D>C D<F "F/a"C4 |\
"Bb"D>C D<F "F/a"C>F A<F | "G7/b"G>A =B<G "C7"c4 |
"F"f<c "C7/e"c>B "Dm"A>G "F/c"A<F | "Bb"D>C D<F "Gm"B2 "C7"c>B |\
"F"A<c F>A "C7"B>G E<G | "F"A<F "C7"F>E "F"FGAB |]
"F"c2 C>C "Bb"D>C D<F | "Bb"d2 B<d c4 |\
"F"c2 C>C "Bb"D>C D<F | "G7"G>A =B<G "C7"c4 |
"F"c2 f>c "Bb"d>c B<c | "G7/b"d2 g<d "C7"e4 |\
"F"f<c "C7/e"c>B "Dm"A>G "F/C"A<F | "Bb"d>B "C7"G<E "F"F2 |]
